src/lib/images/logo/moonriver.svg

<svg width="195" height="248" viewBox="0 0 195 248" fill="none" xmlns="http://www.w3.org/2000/svg">
<path d="M95.383 4.08025e-05C44.3652 0.0133525 3.01365 41.3686 3 92.383C3.00614 98.2186 3.55329 104.042 4.6346 109.777L16.5881 101.604C37.568 87.2113 71.5995 87.2113 92.5773 101.604L105.092 110.191L111.898 114.851C130.804 127.804 161.445 127.804 180.327 114.851L185.889 111.045C196.142 61.0374 163.913 12.1836 113.904 1.93023C107.825 0.684055 101.637 0.0529439 95.4314 0.0468L95.383 4.08025e-05Z" fill="#F2B705"/>
<path d="M147.318 147.882C134.124 148.134 121.155 144.448 110.066 137.295L90.7694 124.073C69.3523 110.93 42.3695 110.93 20.9514 124.073L8.48553 132.611C6.01332 134.302 2.6383 133.668 0.947376 131.196C-0.743547 128.724 -0.110052 125.349 2.36216 123.658L14.828 115.12C39.9553 99.5067 71.7644 99.5067 96.8928 115.12L116.189 128.342C135.281 140.049 159.329 140.049 178.42 128.342L185.738 123.341C188.21 121.65 191.585 122.283 193.276 124.756C194.967 127.228 194.333 130.603 191.861 132.294L184.543 137.295C173.455 144.43 160.499 148.115 147.318 147.882" fill="#53CBC8"/>
<path d="M55.4706 186.694V134.489C55.4259 133.389 55.4669 132.288 55.5925 131.195C55.9389 128.223 58.4548 125.98 61.4472 125.975C64.3441 126.063 66.7142 128.308 66.9607 131.195C67.1829 133.008 67.2481 134.836 67.1559 136.66V240.754C67.2778 244.12 64.6478 246.947 61.2817 247.069C61.2476 247.07 61.2134 247.071 61.179 247.072C57.8698 246.888 55.3365 244.055 55.5212 240.746C55.5263 240.651 55.5341 240.556 55.5437 240.461V205.748L55.4706 186.694Z" fill="#53CBC8"/>
<path d="M44.4931 160.423V186.354C44.4931 190.794 42.0536 193.673 38.7602 193.673C35.4667 193.673 32.8566 190.575 32.832 186.354V134.442C32.832 129.905 35.4913 126.831 38.9312 127.123C42.3707 127.416 44.42 130.027 44.4442 134.589C44.4931 143.127 44.4931 151.762 44.4931 160.423" fill="#53CBC8"/>
<path d="M78.1824 160.371V142.173C78.1824 137.952 80.427 135.22 83.7689 135.22C87.2275 135.382 89.9001 138.318 89.738 141.776C89.7342 141.86 89.7284 141.943 89.7213 142.027C89.8353 154.419 89.8353 166.82 89.7213 179.228C89.7213 183.448 87.2818 186.009 83.7931 185.961C80.3048 185.912 78.1824 183.326 78.1582 179.008V160.394L78.1824 160.371Z" fill="#53CBC8"/>
<path d="M10.2179 164.129V145.906C10.2179 141.662 12.4621 138.929 15.8044 138.929C19.263 139.092 21.9356 142.027 21.7735 145.486C21.7694 145.569 21.7639 145.652 21.7568 145.735C21.8704 158.145 21.8704 170.553 21.7568 182.964C21.7568 187.184 19.3173 189.721 15.8532 189.696C12.3891 189.672 10.2179 187.062 10.1934 182.72V164.13L10.2179 164.129Z" fill="#53CBC8"/>
<path d="M106.506 148.664C109.672 148.664 112.239 151.231 112.239 154.397V164.301C112.239 167.467 109.672 170.034 106.506 170.034C103.34 170.034 100.773 167.467 100.773 164.301V154.397C100.773 151.231 103.34 148.664 106.506 148.664" fill="#53CBC8"/>
<path d="M129.194 157.347C132.36 157.347 134.927 159.914 134.927 163.08V218.675C134.927 221.841 132.36 224.408 129.194 224.408C126.028 224.408 123.461 221.841 123.461 218.675V163.08C123.461 159.914 126.028 157.347 129.194 157.347" fill="#53CBC8"/>
<path d="M151.731 159.494C154.897 159.494 157.464 162.061 157.464 165.227V212.48C157.464 215.647 154.897 218.213 151.731 218.213C148.565 218.213 145.998 215.647 145.998 212.48V165.227C145.998 162.061 148.565 159.494 151.731 159.494" fill="#53CBC8"/>
<path d="M174.59 154.101C177.756 154.101 180.323 156.668 180.323 159.834V180.204C180.323 183.37 177.756 185.937 174.59 185.937C171.425 185.937 168.857 183.37 168.857 180.204V159.834C168.857 156.668 171.425 154.101 174.59 154.101" fill="#53CBC8"/>
</svg>

<svg fill="none" height="248" width="195" xmlns="http://www.w3.org/2000/svg"><path d="M95.383 0C44.365.013 3.013 41.369 3 92.383a94.419 94.419 0 0 0 1.635 17.394l11.953-8.173c20.98-14.393 55.012-14.393 75.99 0l12.514 8.587 6.806 4.66c18.906 12.953 49.547 12.953 68.429 0l5.562-3.806c10.253-50.008-21.976-98.861-71.985-109.115A92.436 92.436 0 0 0 95.431.047z" fill="#f2b705"/><g fill="#53cbc8"><path d="M147.318 147.882a66.383 66.383 0 0 1-37.252-10.587l-19.297-13.222a66.743 66.743 0 0 0-69.818 0l-12.465 8.538a5.424 5.424 0 0 1-6.124-8.953l12.466-8.538c25.127-15.613 56.936-15.613 82.065 0l19.296 13.222a59.524 59.524 0 0 0 62.231 0l7.318-5.001a5.423 5.423 0 1 1 6.123 8.953l-7.318 5.001a66.618 66.618 0 0 1-37.225 10.587"/><path d="M55.47 186.694v-52.205c-.044-1.1-.003-2.201.123-3.294a5.904 5.904 0 0 1 5.854-5.22 5.708 5.708 0 0 1 5.514 5.22c.222 1.813.287 3.641.195 5.465v104.094a6.099 6.099 0 0 1-5.977 6.318 6 6 0 0 1-5.635-6.611v-34.713l-.073-19.054zm-10.977-26.271v25.931c0 4.44-2.44 7.319-5.733 7.319s-5.903-3.098-5.928-7.319v-51.912c0-4.537 2.66-7.611 6.1-7.319 3.439.293 5.488 2.904 5.512 7.466.05 8.538.05 17.173.05 25.834m33.688-.052v-18.198c0-4.221 2.245-6.953 5.587-6.953a6.27 6.27 0 0 1 5.952 6.807 2023.31 2023.31 0 0 1 0 37.201c0 4.22-2.44 6.781-5.928 6.733-3.488-.049-5.61-2.635-5.635-6.953v-18.614zm-67.964 3.758v-18.223c0-4.244 2.244-6.977 5.586-6.977a6.27 6.27 0 0 1 5.953 6.806c.113 12.41.113 24.818 0 37.229 0 4.22-2.44 6.757-5.904 6.732-3.464-.024-5.635-2.634-5.66-6.976v-18.59zm96.288-15.465a5.733 5.733 0 0 1 5.733 5.733v9.904a5.733 5.733 0 0 1-11.466 0v-9.904a5.733 5.733 0 0 1 5.733-5.733m22.688 8.683a5.733 5.733 0 0 1 5.733 5.733v55.595a5.733 5.733 0 0 1-11.466 0V163.08a5.733 5.733 0 0 1 5.733-5.733m22.537 2.147a5.733 5.733 0 0 1 5.733 5.733v47.253a5.733 5.733 0 1 1-11.466 0v-47.253a5.733 5.733 0 0 1 5.733-5.733m22.859-5.393a5.733 5.733 0 0 1 5.733 5.733v20.37a5.733 5.733 0 0 1-11.466 0v-20.37a5.734 5.734 0 0 1 5.733-5.733"/></g></svg>
